lib/healthicons/icons/solid/typography/!.svg

<svg fill="none" height="48" viewBox="0 0 48 48" width="48" xmlns="http://www.w3.org/2000/svg"><g clip-rule="evenodd" fill="#333" fill-rule="evenodd"><path d="m24 10c1.1046 0 2 .8954 2 2v18c0 1.1046-.8954 2-2 2s-2-.8954-2-2v-18c0-1.1046.8954-2 2-2z"/><path d="m24 38c1.1046 0 2-.8954 2-2s-.8954-2-2-2-2 .8954-2 2 .8954 2 2 2z"/></g></svg>

<svg width="48" height="48" viewBox="0 0 48 48" fill="none" xmlns="http://www.w3.org/2000/svg">
<path fill-rule="evenodd" clip-rule="evenodd" d="M24 10C25.1046 10 26 10.8954 26 12L26 30C26 31.1046 25.1046 32 24 32C22.8954 32 22 31.1046 22 30L22 12C22 10.8954 22.8954 10 24 10Z" fill="#333333"/>
<path fill-rule="evenodd" clip-rule="evenodd" d="M24 38C25.1046 38 26 37.1046 26 36C26 34.8954 25.1046 34 24 34C22.8954 34 22 34.8954 22 36C22 37.1046 22.8954 38 24 38Z" fill="#333333"/>
</svg>
